X:1
T: Monkey Island Melody
M: 4/4
L: 1/8
Q:1/4=153
K:G
V:1
z8|z8|z8|z8| z e z/2egfe/2- [e/2d/2-]d/2z|e3z2d zd|cB/2-[d/2-B/2] d/2czcz/2 B2-|Bz2z/2e2<e2g/2-| g/2fedz/2 e4-|ez fg/2z3/2g z/2a3/2-|a/2z3/2 f2 z/2gfed/2-|[f/2-d/2]f/2g zg2-<g/2f2-f/2| e2 zg/2-[g/2f/2-] f/2ed/2- [f/2-d/2]f/2g|zg z/2f2-f/2z e2|z/2gfed3/2-[e/2-d/2]e/2 ze|z/2e3-e/2 z2 e3/2d/2-| d/2cB/2- [d/2-B/2]d/2c zc z/2B3/2-|B/2z6z3/2|z8|B2 d3/2-[c'/2-e/2-d/2] [c'3/2e3/2-][g/2e/2-] e-[g-e-]| [g3/2e3/2]z[c'c-][bc-][a/2c/2-][c'c] [b3/2d3/2-]d/2-|[gd-]d/2-[g3-d3]g/2B3/2-[g-B]g/2-|g/2[a3/2c3/2-] [dc-]c- [d2c2-] c/2a[b/2-d/2-]|[b/2d/2-][ad]g/2- [a/2-g/2]a/2[b3/2g3/2]z/2[g/2f/2-]f/2 z/2[g3/2-e3/2]| g/2[eB]z/2 [e2-B2-] [e/2-B/2]eF2G/2-|G-[A/2-G/2]A6-A/2-|A6- AG-|G8-| G3-G/2F3/2-[G/2-F/2]G2-G/2-|G4 c4-|c3d4-d-|d8| z3/2e/2 ze gf/2-[f/2e/2-] e/2dz/2|z/2e3-e/2 z3/2dzd/2-|d/2c/2-[c/2B/2-]B/2 d/2z/2c z/2czB3/2-|B2 z2 e/2ze2z/2| gf ed z/2e3-e/2-|e3/2zf/2z/2[g/2=f/2] zg za-|az3/2^f2z/2g fe/2-[e/2d/2-]|d/2fgzgz/2f2-f/2z/2| z/2e2z/2g fe/2-[e/2d/2-] d/2fg/2-|g/2z/2g zf2-f/2ze3/2|zg fe/2-[e/2d/2-] d/2zeze/2|ze3 z2 z/2dz/2| cB c3/2-[c/2B/2-] B3/2z2z/2|ze z/2e3gf/2-[f/2e/2-]e/2|d2 ez/2e4z/2|ga/2-[a/2g/2-] g/2fage/2- [f/2-e/2]f/2z| e2 z6|z3E,/2c/2- [c/2-G/2E/2]c/2-[c/2A/2=F/2]d/2 z3/2A,/2|z/2[c/2-A/2-=F/2][c/2A/2]z/2 C/2z3[dBG]z/2B,/2z/2|z3/2G,/2 [c/2-E/2-][c/2-G/2-E/2][c/2G/2-][G/2C/2E,/2] z2 C,/2z/2[c/2-G/2-E/2][c/2-G/2-]| [c/2-G/2][c/2A/2=F/2]z3 [c-A-=F][c/2A/2][C/2A,/2] z2|G,/2z/2[d-B-G] [d/2-B/2-][d/2B/2B,/2]z/2E/2 zC/2z/2 [c/2-G/2E/2]c/2z/2G,/2|z/2C,/2z C/2z/2[c-G-E] [c/2-G/2][c/2A/2=F/2]z3|[cA=F]z/2C/2 z/2G,/2z2[d/2-B/2-G/2][d/2B/2] z/2D/2z/2A,/2| z3/2[e3/2-c3/2-A3/2][e/2c/2E/2]z2D/2 z/2[d-A-^F][d/2A/2-]|[dAF]z3/2D,/2z/2[d-A-F-][d/2-A/2F/2F,/2-][d/2F,/2]z/2 ^A,D/2z/2|[d^A=F-]=F/2D,/2 z/2=F,/2z [c-=A-=F-C][c-A-=F-=A,] [c/2A/2=F/2]zG,/2|z2 [d3/2B3/2G3/2][D/2B,/2] z2 G,/2z/2[d-B-G-]| [d/2B/2G/2B,/2]D/2z2G,/2[d3/2-B3/2-G3/2][dBDB,] z3/2=F,/2|z/2[c3/2-A3/2-=F3/2] [c/2-A/2C/2-A,/2-][c/2C/2A,/2]G,/2z2[d3/2-B3/2-G3/2][d/2B/2D/2B,/2]z/2|z3/2G,/2 z/2[d3/2B3/2-G3/2] [B/2D/2B,/2]z3[d/2-B/2-G/2-]|[d-B-G-][d/2-B/2-G/2D/2-B,/2-][d/2B/2D/2B,/2] z2 [d3/2B3/2G3/2]B,/2 z2| E,/2z/2[c/2-G/2E/2]c/2- [c/2-=F/2][d/2c/2A/2]z2A,/2z/2 [c/2-A/2-=F/2][c/2A/2]z/2C/2|z2 z/2[dBG]z/2 B,/2z2G,/2z/2[c/2-G/2-E/2-]|[c/2-G/2-E/2][c/2G/2][C/2E,/2]z2C,/2 z/2[c/2-G/2-E/2][c-G] [c/2A/2=F/2]z3/2|z3/2[c-A-=F][c/2A/2][C/2A,/2]z2G,/2 z/2[d-B-G][d/2-B/2-]| [d/2B/2B,/2]z/2E/2zC/2z/2[c/2-G/2E/2] c/2z/2G,/2z/2 C,/2zC/2|z/2[c-G-E][c/2-G/2] [c/2A/2=F/2]z3[cA=F]z/2C/2z/2|G,/2z2[d/2-B/2-G/2][d/2B/2]z/2 D/2z/2A,/2z3/2[e-c-A-]|[e/2-c/2-A/2][e/2c/2E/2]z2D/2z/2 [d-A-^F][d/2A/2-][dAF]z3/2| D,/2z/2[d3/2-A3/2F3/2][d/2^F,/2-]F,/2^A,D/2z/2=F/2- [d^A=F]D,/2z/2|=F,/2z[c-=A-=F-C][c-A-=F-=A,][c/2A/2=F/2] zG,/2z2[d/2-B/2-G/2-]|[dBG][D/2B,/2]z2G,/2 z/2[d3/2B3/2G3/2] [D/2B,/2]z3/2|z/2G,/2z/2[d-B-G-][d/2-B/2-G/2D/2-B,/2-][d/2-B/2-D/2B,/2][d/2B/2] z=F,/2z/2 [c3/2-A3/2-=F3/2][c/2-A/2C/2-A,/2-]| [c/2C/2A,/2]G,/2z2[d3/2-B3/2-G3/2][d/2B/2D/2B,/2]z2G,/2z/2|[d3/2B3/2-G3/2][B/2D/2B,/2] z3[d3/2-B3/2-G3/2-][d/2-B/2-G/2D/2-B,/2-][d/2B/2D/2B,/2]z/2|z3/2[d3/2B3/2G3/2]B,/2z2E,/2 z/2[c/2-G/2E/2]c/2-[c/2-=F/2]|[d/2c/2A/2]z2A,/2z/2[c/2-A/2-=F/2] [c/2A/2]z/2C/2z2z/2| z/2[dBG]B,/2 z2 G,/2z/2[c-G-E] [c/2G/2][C/2E,/2]z|zC,/2z/2 [c/2-G/2-E/2][c-G][c/2A/2=F/2] z3[c-A-=F]|[c/2A/2][C/2A,/2]z2G,/2z/2 [d-B-G][d/2-B/2-][d/2B/2B,/2] z/2E/2z|C/2z/2[c/2-G/2E/2]c/2 z/2G,/2z/2C,/2 zC/2z/2 [c-G-E][c/2-G/2][c/2A/2=F/2]| z3[cA=F] z/2C/2z/2G,/2 z2|[d/2-B/2-G/2][d/2B/2]z/2D/2 z/2A,/2z3/2[e3/2-c3/2-A3/2] [e/2c/2E/2]z3/2|z/2D/2z/2[d-A-^F][d/2A/2-][dAF] z3/2D,/2 z/2[d-A-F-][d/2-A/2F/2^F,/2-]|[d/2F,/2]z/2^A, D/2z/2[d^A=F-] =F/2D,/2z/2=F,/2 z[c-=A-=F-C]| [c-A-=F-=A,][c/2A/2=F/2]zG,/2z2[d3/2B3/2G3/2][D/2B,/2]z|zG,/2z/2 [d-B-G-][d/2B/2G/2B,/2]D/2 z4|z8|zf zf3 z/2d-[f/2-d/2]| f/2gz/2 az g-[g/2f/2-]f/2 ez|z/2=fz=fe=fz/2 ed|z3/2d4-d3/2
-----------------------------------------------------------------------------
Stronkie06-11-2007, 07:34 AMI have created a lot of multiple ABC songs.... For using in the band.. People can play (sync) the different themes...
